src/lib/packages/icons/src/assets/line/arrow-up-square.svg

<svg width="24" height="24" viewBox="0 0 24 24" fill="none" xmlns="http://www.w3.org/2000/svg">
<path d="M17.625 2.25H6.375C3.715 2.25 2.25 3.715 2.25 6.375V17.625C2.25 20.285 3.715 21.75 6.375 21.75H17.625C20.285 21.75 21.75 20.285 21.75 17.625V6.375C21.75 3.715 20.285 2.25 17.625 2.25ZM20.25 17.625C20.25 19.465 19.465 20.25 17.625 20.25H6.375C4.535 20.25 3.75 19.465 3.75 17.625V6.375C3.75 4.535 4.535 3.75 6.375 3.75H17.625C19.465 3.75 20.25 4.535 20.25 6.375V17.625ZM15.53 10.47C15.823 10.763 15.823 11.238 15.53 11.531C15.384 11.677 15.192 11.751 15 11.751C14.808 11.751 14.616 11.678 14.47 11.531L12.75 9.81104V16C12.75 16.414 12.414 16.75 12 16.75C11.586 16.75 11.25 16.414 11.25 16V9.81104L9.53003 11.531C9.23703 11.824 8.76199 11.824 8.46899 11.531C8.17599 11.238 8.17599 10.763 8.46899 10.47L11.469 7.46997C11.538 7.40097 11.6209 7.34611 11.7129 7.30811C11.8959 7.23211 12.1029 7.23211 12.2859 7.30811C12.3779 7.34611 12.461 7.40097 12.53 7.46997L15.53 10.47Z" fill="currentColor"/>
</svg>

<svg xmlns="http://www.w3.org/2000/svg" width="24" height="24" fill="none"><path fill="currentColor" d="M17.625 2.25H6.375c-2.66 0-4.125 1.465-4.125 4.125v11.25c0 2.66 1.465 4.125 4.125 4.125h11.25c2.66 0 4.125-1.465 4.125-4.125V6.375c0-2.66-1.465-4.125-4.125-4.125Zm2.625 15.375c0 1.84-.785 2.625-2.625 2.625H6.375c-1.84 0-2.625-.785-2.625-2.625V6.375c0-1.84.785-2.625 2.625-2.625h11.25c1.84 0 2.625.785 2.625 2.625v11.25Zm-4.72-7.155a.75.75 0 0 1-1.06 1.061l-1.72-1.72V16a.75.75 0 0 1-1.5 0V9.811l-1.72 1.72a.75.75 0 0 1-1.061-1.061l3-3a.748.748 0 0 1 .817-.162.749.749 0 0 1 .244.162l3 3Z"/></svg>
